icon-themes/breeze_svg/cmd/sc_crookrotate.svg

<?xml version="1.0" encoding="UTF-8" standalone="no"?>
<!-- Created with Inkscape (http://www.inkscape.org/) -->

<svg
   xmlns:dc="http://purl.org/dc/elements/1.1/"
   xmlns:cc="http://creativecommons.org/ns#"
   xmlns:rdf="http://www.w3.org/1999/02/22-rdf-syntax-ns#"
   xmlns:svg="http://www.w3.org/2000/svg"
   xmlns="http://www.w3.org/2000/svg"
   xmlns:sodipodi="http://sodipodi.sourceforge.net/DTD/sodipodi-0.dtd"
   xmlns:inkscape="http://www.inkscape.org/namespaces/inkscape"
   width="16"
   height="16"
   id="svg3049"
   version="1.1"
   inkscape:version="0.48.4 r9939"
   sodipodi:docname="sc_crookrotate.svg"
   inkscape:export-filename="/home/uri/.kde/share/icons/NITRUX-KDE/16x16/actions/view-right-new.png"
   inkscape:export-xdpi="30"
   inkscape:export-ydpi="30">
  <defs
     id="defs3051" />
  <sodipodi:namedview
     id="base"
     pagecolor="#ffffff"
     bordercolor="#666666"
     borderopacity="1.0"
     inkscape:pageopacity="0.0"
     inkscape:pageshadow="2"
     inkscape:zoom="45.254834"
     inkscape:cx="6.4193644"
     inkscape:cy="8.5928379"
     inkscape:document-units="px"
     inkscape:current-layer="g5674"
     showgrid="true"
     fit-margin-top="0"
     fit-margin-left="0"
     fit-margin-right="0"
     fit-margin-bottom="0"
     inkscape:window-width="1407"
     inkscape:window-height="1053"
     inkscape:window-x="509"
     inkscape:window-y="0"
     inkscape:window-maximized="0"
     inkscape:showpageshadow="false"
     borderlayer="true"
     inkscape:snap-bbox="true"
     inkscape:snap-global="false">
    <inkscape:grid
       type="xygrid"
       id="grid4085" />
    <sodipodi:guide
       position="2,15"
       orientation="12,0"
       id="guide4075" />
    <sodipodi:guide
       position="17,2"
       orientation="0,12"
       id="guide4077" />
    <sodipodi:guide
       position="14,13"
       orientation="-12,0"
       id="guide4079" />
    <sodipodi:guide
       position="0,14"
       orientation="0,-12"
       id="guide4081" />
  </sodipodi:namedview>
  <metadata
     id="metadata3054">
    <rdf:RDF>
      <cc:Work
         rdf:about="">
        <dc:format>image/svg+xml</dc:format>
        <dc:type
           rdf:resource="http://purl.org/dc/dcmitype/StillImage" />
        <dc:title></dc:title>
      </cc:Work>
    </rdf:RDF>
  </metadata>
  <g
     inkscape:label="Capa 1"
     inkscape:groupmode="layer"
     id="layer1"
     transform="translate(-421.71429,-531.79074)">
    <g
       transform="translate(418.71429,-499.57146)"
       id="layer1-1"
       inkscape:label="Capa 1" />
    <g
       id="g5674"
       transform="matrix(-1,0,0,1,859.42858,0)">
      <path
         style="font-size:medium;font-style:normal;font-variant:normal;font-weight:normal;font-stretch:normal;text-indent:0;text-align:start;text-decoration:none;line-height:normal;letter-spacing:normal;word-spacing:normal;text-transform:none;direction:ltr;block-progression:tb;writing-mode:lr-tb;text-anchor:start;baseline-shift:baseline;color:#000000;fill:#4d4d4d;fill-opacity:1;stroke:none;stroke-width:1px;marker:none;visibility:visible;display:inline;overflow:visible;enable-background:accumulate;font-family:Sans;-inkscape-font-specification:Sans"
         d="M 5,2 C 3.9645447,2 2.9655245,2.0321673 2,2.09375 L 2,2.1875 2,3.09375 2,12 2,12.4375 2,13 c 0.96813,-0.0525 1.953,-0.09375 3,-0.09375 2.4739369,0 4.7098874,0.171728 6.59375,0.4375 0.308898,0.04703 0.661611,0.120962 0.955968,0.172823 0.0036,-0.0061 0.976034,-7.0456706 1.446372,-10.5282918 C 10.80706,2.3311565 7.6687194,2.0105614 5,2 z m 0,1 c 3.0919126,0 5.801541,0.2553833 7.90625,0.65625 l -1.1875,8.78125 C 9.7603606,12.112301 7.4845048,11.90625 5,11.90625 c -0.6903067,0 -1.3412133,0.03472 -2,0.0625 L 3,3.0625 C 3.6562212,3.0347222 4.3019969,3 5,3 z"
         transform="matrix(-1,0,0,1,437.71429,531.79074)"
         id="path4001"
         inkscape:connector-curvature="0"
         sodipodi:nodetypes="cccccccsccccsccsccs" />
      <path
         style="color:#000000;fill:#4d4d4d;fill-opacity:1;stroke:none;stroke-width:1;marker:none;visibility:visible;display:inline;overflow:visible;enable-background:accumulate"
         d="m 432.29041,537.29074 1.42388,1.70667 -1.42388,1.70667 0,-0.85334 c -1.86052,0 -3.14474,0.26906 -4.47188,0.66671 l 0.17798,0.77329 -1.73535,-1.19995 1.00118,-2.08001 0.17798,0.8 c 1.37456,-0.39449 3.08321,-0.66671 4.85009,-0.66671 l 0,-0.85333 z"
         id="rect3891"
         inkscape:connector-curvature="0" />
    </g>
  </g>
</svg>

<svg xmlns="http://www.w3.org/2000/svg" viewBox="0 0 16 16">
     />
 <path 
     style="fill:#4d4d4d" 
     d="M 5 2 C 3.9645447 2 2.9655245 2.0321673 2 2.09375 L 2 2.1875 L 2 3.09375 L 2 12 L 2 12.4375 L 2 13 C 2.96813 12.9475 3.953 12.90625 5 12.90625 C 7.4739369 12.90625 9.7098874 13.077978 11.59375 13.34375 C 11.902648 13.39078 12.254471 13.463764 12.548828 13.515625 C 12.552428 13.509525 13.525756 6.4709025 13.996094 2.9882812 C 10.807064 2.3311567 7.6687194 2.0105614 5 2 z M 5 3 C 8.0919126 3 10.801541 3.2553833 12.90625 3.65625 L 11.71875 12.4375 C 9.7603606 12.112301 7.4845048 11.90625 5 11.90625 C 4.3096933 11.90625 3.6587867 11.94097 3 11.96875 L 3 3.0625 C 3.6562212 3.0347222 4.3019969 3 5 3 z M 5.4238281 5.5 L 4 7.2070312 L 5.4238281 8.9140625 L 5.4238281 8.0605469 C 7.2843481 8.0605469 8.5693444 8.3289125 9.8964844 8.7265625 L 9.71875 9.5 L 11.453125 8.3007812 L 10.451172 6.2207031 L 10.273438 7.0195312 C 8.8988775 6.6250412 7.1907081 6.3535156 5.4238281 6.3535156 L 5.4238281 5.5 z "
     />
 </svg>
